theme/essential/pix_core/t/locked.svg

<!DOCTYPE svg PUBLIC "-//W3C//DTD SVG 1.1//EN" "http://www.w3.org/Graphics/SVG/1.1/DTD/svg11.dtd" [
	<!ENTITY ns_flows "http://ns.adobe.com/Flows/1.0/">
]><svg xmlns="http://www.w3.org/2000/svg" width="12" height="12" viewBox="0 0 12 12" preserveAspectRatio="xMinYMid meet" overflow="visible"><path d="M6.5 0h-1c-1.7 0-3 1.3-3 3v2h-1.5c-.5 0-1 .5-1 1v5c0 .6.4 1 1 1h10c.5 0 1-.5 1-1v-5c0-.6-.5-1-1-1h-1.5v-2c0-1.7-1.3-3-3-3zm.5 8c0 .4-.2.7-.6.9l.1.1.5 1h-2l.5-1 .1-.1c-.4-.2-.6-.5-.6-.9 0-.5.4-1 1-1s1 .5 1 1zm.5-5v2h-3v-2c0-.6.5-1 1-1h1c.6 0 1 .4 1 1z" fill="#999"/></svg>

<?xml version="1.0" encoding="utf-8"?>
<!-- Generator: Adobe Illustrator 15.1.0, SVG Export Plug-In  -->
<!DOCTYPE svg PUBLIC "-//W3C//DTD SVG 1.1//EN" "http://www.w3.org/Graphics/SVG/1.1/DTD/svg11.dtd" [
	<!ENTITY ns_flows "http://ns.adobe.com/Flows/1.0/">
]>
<svg version="1.1"
	 xmlns="http://www.w3.org/2000/svg" xmlns:xlink="http://www.w3.org/1999/xlink" xmlns:a="http://ns.adobe.com/AdobeSVGViewerExtensions/3.0/"
	 x="0px" y="0px" width="12px" height="12px" viewBox="0 0 12 12" style="overflow:visible;enable-background:new 0 0 12 12;"
	 xml:space="preserve" preserveAspectRatio="xMinYMid meet">
<defs>
</defs>
<path style="fill:#29a1c4;" d="M6.5,0l-1,0c-1.7,0-3,1.3-3,3v2H1C0.5,5,0,5.5,0,6l0,5c0,0.6,0.4,1,1,1h10c0.5,0,1-0.5,1-1l0-5
	c0-0.6-0.5-1-1-1H9.5l0-2C9.5,1.3,8.2,0,6.5,0z M7,8c0,0.4-0.2,0.7-0.6,0.9L6.5,9L7,10H6H5l0.5-1l0.1-0.1C5.2,8.7,5,8.4,5,8
	c0-0.5,0.4-1,1-1S7,7.5,7,8z M7.5,3v2l-3,0V3c0-0.6,0.5-1,1-1h1C7.1,2,7.5,2.4,7.5,3z"/>
</svg>
